X: 39
T: a Trip to the Landry
%%VWML:Wrights-3753-p20-0
F: http://www.vwml.org/record/Wrights/3753/p20
%R: reel
B: Daniel Wright "Wright's Compleat Collection of Celebrated Country Dances" 1740 p.20
S: http://library.efdss.org/cgi-bin/dancebooks.cgi
Z: 2014 John Chambers <jc:trillian.mit.edu>
N: The 2nd Strain has initial repeat but no final repeat; not fixed.
M: 2/4
L: 1/16
K: A
%-------------------------
|:\
(A2c2)(B2d2) | (c2e2)(B2d2) | c2(BA) G2B2 | d2B2 B4 |\
(A2c2)(B2d2) | (c2e2)(B2d2) | c2BA E2A2 | c2A2 A4 :|
|:\
e2a2 gfed | fedc dcBA | e2a2 g2f2 | g2ab e4 |\
e2a2 agfe | fedc dcBA | cecA BdBG | c2A2 A4 |]
%-------------------------
%%begintext align
%% The 1st Man sets to the 2d Wo. & turns her .| 1st Wo
%% does the same with the 2d Man :| 1st Cu. cross over and
%% figure at Top .| 1st & 2d Cu. Right & Left quite round
%% :#: The 1st Man turns 3d Wo. his Partner turns 2d Man
%% at the same Time then each other with your left hands
%% .| Then do the same at the other Corner :| The 1st Cu. leads
%% through the 2d & 3d Wo. & turn in the 2d Cu. Place .|
%% Then lead through the 2d & 3d Men and turn again.
%%endtext
%-------------------------
%%sep 2 4 300
T: White Joak
T: Longways for as many as will.
%R: jig
B: Daniel Wright "Wright's Compleat Collection of Celebrated Country Dances" 1740 p.20
S: http://library.efdss.org/cgi-bin/dancebooks.cgi
Z: 2014 John Chambers <jc:trillian.mit.edu>
N: The 2nd Strain has initial repeat but no final repeat; not fixed.
M: 6/8
L: 1/8
K: D
%-------------------------
|:\
d2d fed | dcB A2G/F/ | B2B Bcd | A2F DEF |\
G3 BAG | F2E D3 :||: A2A ABc | def e3 |
AFA ABc | def e2d/c/ | B2d A2d | G2d F>GA |\
B2B B>cd | A2F D>EF | G3 BAG | FGE D3 |]
%-------------------------
%%begintext align
%% The 1st Man with his Right Hand turns 2d Wo. 1st Wo.
%% at the same time turns 2d Man with her left Hand, then
%% 1st Man turns his Partner with his left Hand, in the 2d
%% Cu. Place .| The 1st Cu. does the same with the 3d :| The
%% 1st Cu. cross up above the 3d, Right & Left quite round
%% with the 2d Cu. .| The 1st & 3d Cu. Hands down abreast &
%% all Foot it, 1st Cu. half Figures through the 3d and %% turn in the 2d Cu. Place.
%%endtext
%-------------------------
%%sep 2 4 300
